**kern	**text	**kern	**text	**kern	**text	**kern	**text	**kern	**text	**cdata-harm
*staff5	*staff5	*staff4	*staff4	*staff3	*staff3	*staff2	*staff2	*staff1	*staff1	*
=1-	=1-	=1-	=1-	=1-	=1-	=1-	=1-	=1-	=1-	=1-
*clefF4	*	*clefGv2	*	*clefGv2	*	*clefG2	*	*clefG2	*	*
*k[]	*	*k[]	*	*k[]	*	*k[]	*	*k[]	*	*
*M4/4	*	*M4/4	*	*M4/4	*	*M4/4	*	*M4/4	*	*
1r	.	1r	.	2r	.	1r	.	1dd\	Oin	<ANTIF_9v_3mot
.	.	.	.	2g\	Oin	.	.	.	.	.
=2	=2	=2	=2	=2	=2	=2	=2	=2	=2	.
1r	.	1r	.	4.e\	pri-	1r	.	4.g/	pri-	.
.	.	.	.	8f\	ma-	.	.	8a/	ma-	.
.	.	.	.	4g\	ve-	.	.	4b\	ve-	.
.	.	.	.	[4a\	rae-	.	.	4cc\	rae-	.
=3	=3	=3	=3	=3	=3	=3	=3	=3	=3	.
1r	.	2r	.	4a\]	.	2r	.	2b\	ter-	.
.	.	.	.	2g\	ter-	.	.	.	.	.
.	.	4d\	Gi&agrave;	.	.	4dd\	Gi&agrave;	2a/	na	.
.	.	8d\L	nel	4f\	.	8dd\L	nel	.	.	.
.	.	8d\J	mioa-	.	.	8dd\J	mioa-	.	.	.
=4	=4	=4	=4	=4	=4	=4	=4	=4	=4	.
1r	.	4e\	mor	2g\	na	4b\	mor	2r	.	.
.	.	4c\	pian-	.	.	4cc\	pian-	.	.	.
.	.	2f\	ta-	4d\	Gi&agrave;	2a/	ta-	4dd\	Gi&agrave;	.
.	.	.	.	8d\L	nel	.	.	8dd\L	nel	.
.	.	.	.	8d\J	mioa-	.	.	8dd\J	mioa-	.
=5	=5	=5	=5	=5	=5	=5	=5	=5	=5	.
2r	.	2e\	ta	4e\	mor	2g/	ta	4b\	mor	.
.	.	.	.	4c\	pian-	.	.	4cc\	pian-	.
2d\	Oin	2r	.	2f\	ta	2dd\	Oin	2a/	ta-	.
=6	=6	=6	=6	=6	=6	=6	=6	=6	=6	.
4.G\	pri-	2r	.	2d\	ta	4.b\	pri-	1g/	ta	.
8A\	ma-	.	.	.	.	8cc\	ma-	.	.	.
4B\	ve-	2g\	Oin	2r	.	4dd\	ve-	.	.	.
4c\	rae-	.	.	.	.	[4ee\	rae-	.	.	.
=7	=7	=7	=7	=7	=7	=7	=7	=7	=7	.
2B\	ter-	4.d\	pri-	4g\	Gi&agrave;	4ee\]	.	1r	.	.
.	.	.	.	8g\L	nel	2dd\	ter-	.	.	.
.	.	8e\	ma-	8g\J	mioa-	.	.	.	.	.
2A\	na	4f\	ve-	4a\	mor	.	.	.	.	.
.	.	4a\	rae-	4e\	pian-	4cc\	.	.	.	.
=8	=8	=8	=8	=8	=8	=8	=8	=8	=8	.
4d\	Gi&agrave;	2a\	ter-	2f\	ta-	2dd\	na	4a/	Gi&agrave;	.
8d\L	nel	.	.	.	.	.	.	8a/L	nel	.
8d\J	mioa-	.	.	.	.	.	.	8a/J	mioa-	.
4B\	mor	2g\	na	4d\	ta	2r	.	4b\	mor	.
4c\	pian-	.	.	4e\	Oin	.	.	4g/	pian-	.
=9	=9	=9	=9	=9	=9	=9	=9	=9	=9	.
2A\	ta-	1r	.	4.c\	pri-	1r	.	2cc\	ta-	.
.	.	.	.	8d\	ma-	.	.	.	.	.
2G\	ta	.	.	4e\	ve-	.	.	4b\	ta	.
.	.	.	.	4g\	rae-	.	.	4b\	pian-	.
=10	=10	=10	=10	=10	=10	=10	=10	=10	=10	.
1r	.	4d\	Gi&agrave;	2f\	ter-	4dd\	Gi&agrave;	2a/	ta-	.
.	.	8d\L	nel	.	.	8dd\L	nel	.	.	.
.	.	8d\J	mioa-	.	.	8dd\J	mioa-	.	.	.
.	.	4e\	mor	2e\	na	4b\	mor	2g/	ta	.
.	.	4c\	pian-	.	.	4cc\	pian-	.	.	.
=11	=11	=11	=11	=11	=11	=11	=11	=11	=11	.
1r	.	2f\	ta-	4d\	Gi&agrave;	2a/	ta-	4dd\	Gi&agrave;	.
.	.	.	.	8d\L	nel	.	.	8dd\L	nel	.
.	.	.	.	8d\J	mioa-	.	.	8dd\J	mioa-	.
.	.	2e\	ta	4e\	mor	2g/	ta	4b\	mor	.
.	.	.	.	4c\	pian-	.	.	4cc\	pian-	.
=12	=12	=12	=12	=12	=12	=12	=12	=12	=12	.
2r	.	2r	.	2f\	ta-	2r	.	2a/	ta-	.
2C/	Bel-	2c\	Bel-	2e\	ta	2cc\	Bel-	2g/	ta	><CON_2v+1doub+1trip
=13	=13	=13	=13	=13	=13	=13	=13	=13	=13	.
2F\	laau-	2A/	laau-	2c\	Bel-	2cc\	laau-	2a/	Bel-	.
[2F\	reaar-	[2c\	reaar-	2f\	laau-	[2cc\	reaar-	4a/	laau-	.
.	.	.	.	.	.	.	.	[4a/	reaar-	.
=14	=14	=14	=14	=14	=14	=14	=14	=14	=14	.
4F\]	.	4c\]	.	2f\	reaar-	4cc\]	.	4a/]	.	.
4F\	bor	4c\	bor	.	.	4cc\	bor	4a/	bor	.
2D\	in-	2d\	in-	4f\	bor	2ff\	in-	4a/	in-	.
.	.	.	.	4a\	in-	.	.	[4dd\	gra-	.
=15	=15	=15	=15	=15	=15	=15	=15	=15	=15	.
1A\	gra-	1e\	gra-	1a\	gra-	2ee\	gra-	4dd\]	.	.
.	.	.	.	.	.	.	.	8cc\L	.	.
.	.	.	.	.	.	.	.	8b\J	.	.
.	.	.	.	.	.	[2a/	ta	2cc\	.	.
=16	=16	=16	=16	=16	=16	=16	=16	=16	=16	.
1D\	ta	2d\	ta	1f#\	ta	2a/]	.	2dd\	ta	>
.	.	4r	.	.	.	4r	.	4r	.	.
.	.	4d\	Chi	.	.	4dd\	Chi	4a/	Chi	<ANTIF_11v_3mot
=17	=17	=17	=17	=17	=17	=17	=17	=17	=17	.
4r	.	4g\	&egrave;	4r	.	2dd\	&egrave;	2b\	&egrave;	.
4G\	Chi	4d\	Chi	4g\	Chi	.	.	.	.	.
2d\	&egrave;	2f\	&egrave;	4a\	&egrave;	4r	.	4r	.	.
.	.	.	.	4d\	Chi	4a/	Chi	4dd\	Chi	.
=18	=18	=18	=18	=18	=18	=18	=18	=18	=18	.
4r	.	4r	.	4g\	&egrave;	2b\	&egrave;	2dd\	&egrave;	.
4G\	Chi	8d\L	che	4g\	Chi	.	.	.	.	.
.	.	8e\J	t'ha-	.	.	.	.	.	.	.
4d\	&egrave;	2f#\	svel-	2a\	&egrave;	2r	.	4r	.	.
4D\	Chi	.	.	.	.	.	.	8dd\L	che	.
.	.	.	.	.	.	.	.	8cc\J	t'ha	.
=19	=19	=19	=19	=19	=19	=19	=19	=19	=19	.
2G\	&egrave;	[1g\	ta?	1r	.	4r	.	2b\	svel-	.
.	.	.	.	.	.	8dd\L	che	.	.	.
.	.	.	.	.	.	8cc\J	t'ha-	.	.	.
4r	.	.	.	.	.	2b\	svel-	2dd\	ta?	.
8G\L	che	.	.	.	.	.	.	.	.	.
8A\J	t'ha-	.	.	.	.	.	.	.	.	.
=20	=20	=20	=20	=20	=20	=20	=20	=20	=20	.
2B\	svel-	1g\]	.	4r	.	2dd\	ta?	2r	.	.
.	.	.	.	8g\L	che	.	.	.	.	.
.	.	.	.	8f\J	t'ha-	.	.	.	.	.
2c\	ta?	.	.	2e\	svel-	2r	.	4r	.	.
.	.	.	.	.	.	.	.	4cc\	il	.
=21	=21	=21	=21	=21	=21	=21	=21	=21	=21	.
4r	.	4r	.	2f\	ta?	2r	.	8a/L	ven-	.
.	.	.	.	.	.	.	.	8b/J	.	.
4F\	il	4a\	il	.	.	.	.	8cc/L	.	.
.	.	.	.	.	.	.	.	8a/J	.	.
8D\L	ven-	8f\L	ven-	4r	.	4r	.	8dd\L	.	.
8E\J	.	8g\J	.	.	.	.	.	8cc\J	.	.
8F\L	.	8a\L	.	4d\	il	4a/	il	8a\L	.	.
8D\J	.	8f\J	.	.	.	.	.	8b\J	.	.
=22	=22	=22	=22	=22	=22	=22	=22	=22	=22	.
4A\	.	4e\	.	4e\	ven-	4a/	ven-	4cc#\	.	.
4d\	to?	4d\	to?	4f#\	to?	4a/	to?	4dd\	to?	>
2r	.	4r	.	2r	.	4r	.	4r	.	.
.	.	4d\	Chi	.	.	4a/	Chi	4dd\	Chi	<ANTIFrep_11v_3mot
=23	=23	=23	=23	=23	=23	=23	=23	=23	=23	.
4r	.	4g\	&egrave;	4r	.	2b\	&egrave;	2dd\	&egrave;	.
4G\	Chi	4d\	Chi	4g\	Chi	.	.	.	.	.
2d\	&egrave;	2f\	&egrave;	4a\	&egrave;	4r	.	4r	.	.
.	.	.	.	4d\	Chi	4dd\	Chi	4a/	Chi	.
=24	=24	=24	=24	=24	=24	=24	=24	=24	=24	.
4r	.	4r	.	4g\	&egrave;	2dd\	&egrave;	2b\	&egrave;	.
4G\	Chi	8d\L	che	4g\	Chi	.	.	.	.	.
.	.	8e\J	t'ha-	.	.	.	.	.	.	.
4d\	&egrave;	2f#\	svel-	2a\	&egrave;	4r	.	2r	.	.
4D\	Chi	.	.	.	.	8dd\L	che	.	.	.
.	.	.	.	.	.	8cc\J	t'ha-	.	.	.
=25	=25	=25	=25	=25	=25	=25	=25	=25	=25	.
2G\	&egrave;	[1g\	ta?	1r	.	2b\	svel-	4r	.	.
.	.	.	.	.	.	.	.	8dd\L	che	.
.	.	.	.	.	.	.	.	8cc\J	t'ha	.
4r	.	.	.	.	.	2dd\	ta?	2b\	svel-	.
8G\L	che	.	.	.	.	.	.	.	.	.
8A\J	t'ha-	.	.	.	.	.	.	.	.	.
=26	=26	=26	=26	=26	=26	=26	=26	=26	=26	.
2B\	svel-	1g\]	.	4r	.	2r	.	2dd\	ta?	.
.	.	.	.	8g\L	che	.	.	.	.	.
.	.	.	.	8f\J	t'ha-	.	.	.	.	.
2c\	ta?	.	.	2e\	svel-	4r	.	2r	.	.
.	.	.	.	.	.	4cc\	il	.	.	.
=27	=27	=27	=27	=27	=27	=27	=27	=27	=27	.
4r	.	4r	.	2f\	ta?	8a/L	ven-	2r	.	.
.	.	.	.	.	.	8b/J	.	.	.	.
4F\	il	4a\	il	.	.	8cc/L	.	.	.	.
.	.	.	.	.	.	8a/J	.	.	.	.
8D\L	ven-	8f\L	ven-	4r	.	8dd\L	.	4r	.	.
8E\J	.	8g\J	.	.	.	8cc\J	.	.	.	.
8F\L	.	8a\L	.	4d\	il	8a\L	.	4a/	il	.
8D\J	.	8f\J	.	.	.	8b\J	.	.	.	.
=28	=28	=28	=28	=28	=28	=28	=28	=28	=28	.
4A\	.	4e\	.	4e\	ven-	4cc#\	.	4a/	ven-	.
4d\	to?	4d\	to?	4f#\	to?	4dd\	to?	4a/	to?	>
2G\	Non	4d\	Non	2g\	Non	2b\	Non	2r	.	<CON_5v
.	.	[4e\	gi&agrave;	.	.	.	.	.	.	.
=29	=29	=29	=29	=29	=29	=29	=29	=29	=29	.
[1A\	gi&agrave;	4e\]	.	4e\	gi&agrave;	4cc\	gi&agrave;	1r	.	.
.	.	4c#\	ma	4e\	Non	4a/	ma	.	.	.
.	.	8e\L	tuo	4c#\	gi&agrave;	4a/	tuo	.	.	.
.	.	8e\J	ta-	.	.	.	.	.	.	.
.	.	[4d\	len-	4d\	ma	4f/	ta-	.	.	.
=30	=30	=30	=30	=30	=30	=30	=30	=30	=30	.
2A\]	.	4d\]	.	4a\	tuo	2e/	len-	2ee\	Non	.
.	.	4c\	.	4a\	ta-	.	.	.	.	.
2r	.	4d\	to	2a\	len-	2d/	to	4ff\	gi&agrave;	.
.	.	4d\	Non	.	.	.	.	4dd\	ma	.
=31	=31	=31	=31	=31	=31	=31	=31	=31	=31	.
2A\	Non	2.e\	gi&agrave;	2a\	to	4r	.	4dd\	tuo	.
.	.	.	.	.	.	4a/	Non	4cc\	ta-	.
4c\	gi&agrave;	.	.	4r	.	2ee\	gi&agrave;	2a/	len-	.
4A\	ma	4c\	ma	4a\	Non	.	.	.	.	.
=32	=32	=32	=32	=32	=32	=32	=32	=32	=32	.
4A\	tuo	8e\L	tuo	4cc\	gi&agrave;	1r	.	2a/	to	.
.	.	8e\J	ta-	.	.	.	.	.	.	.
4F\	ta-	2d\	len-	4a\	ma	.	.	.	.	.
2E\	len-	.	.	4g\	tuo	.	.	2ee\	Non	.
.	.	4c\	.	4e\	ta-	.	.	.	.	.
=33	=33	=33	=33	=33	=33	=33	=33	=33	=33	.
[1D\	to.	4d\	to	2a\	len-	2dd\	Non	4ff\	gi&agrave;	.
.	.	4f\	ma	.	.	.	.	4dd\	ma	.
.	.	4f\	tuo	4d\	to	4ff\	gi&agrave;	4dd\	tuo	.
.	.	4f\	ta-	4d\	ma	4dd\	ma	4b-\	ta-	.
=34	=34	=34	=34	=34	=34	=34	=34	=34	=34	.
1D\]	.	1d\	len-	4f#\	tuo	4dd\	tuo	8a\L	len-	.
.	.	.	.	.	.	.	.	16b\L	.	.
.	.	.	.	.	.	.	.	16cc\JJ	.	.
.	.	.	.	4g\	ta-	4b-\	ta-	[4dd\	.	.
.	.	.	.	2f#\	len-	2a/	len-	8dd\L]	.	.
.	.	.	.	.	.	.	.	8cc\J	.	.
.	.	.	.	.	.	.	.	4a/	.	.
=35	=35	=35	=35	=35	=35	=35	=35	=35	=35	.
1r	.	2G/	to.	2g\	to.	1g/	to.	1b\	to.	>
.	.	2r	.	2r	.	.	.	.	.	.
=36	=36	=36	=36	=36	=36	=36	=36	=36	=36	.
1G\	Dun-	2r	.	2r	.	1r	.	2r	.	<HOM_4v
.	.	4r	.	2d\	Dun-	.	.	2g/	Dun-	.
.	.	[4B\	Dun-	.	.	.	.	.	.	.
=37	=37	=37	=37	=37	=37	=37	=37	=37	=37	.
2E\	queat-	4B\]	.	2e\	queat-	1r	.	2g/	queat-	.
.	.	4c\	queat-	.	.	.	.	.	.	.
4G\	ter-	4B\	ter-	4d\	ter-	.	.	4g/	ter-	.
[4C/	rat-	[4G/	rat-	[4c\	rat-	.	.	[4e/	rat-	.
=38	=38	=38	=38	=38	=38	=38	=38	=38	=38	.
4C/]	.	4G/]	.	4c\]	.	2r	.	4e/]	.	.
4E\	tahor-	4G/	tahor-	4c\	tahor-	.	.	4e/	tahor-	.
2D\	ver-	2d\	ver-	2B\	ver-	4r	.	2f/	ver-	.
.	.	.	.	.	.	4dd\	Che	.	.	<<CON_5v
=39	=39	=39	=39	=39	=39	=39	=39	=39	=39	.
[1C/	na	4G/	na	2.c\	na	4.ee\	ne	2e/	na	>
.	.	4c\	Che	.	.	.	.	.	.	.
.	.	.	.	.	.	8ff\	lo	.	.	.
.	.	4.e\	ne-	.	.	4gg\	sdeg-	4cc\	Che	.
.	.	.	.	4c\	Che	4cc\	no	[4ee\	ne	.
.	.	8f\	lo	.	.	.	.	.	.	.
=40	=40	=40	=40	=40	=40	=40	=40	=40	=40	.
2C/]	.	4g\	sdeg-	4.e\	ne	4cc\	Che	8ee\L]	.	.
.	.	.	.	.	.	.	.	8ff\J	lo	.
.	.	4c\	no	.	.	[4ee\	ne	4gg\	sdeg-	.
.	.	.	.	8f\	lo	.	.	.	.	.
2C/	Che	4c\	Che	4g\	sdeg-	8ee\L]	.	4cc\	no	.
.	.	.	.	.	.	8ff\J	lo	.	.	.
.	.	[4e\	ne	4c\	no	[4gg\	sdeg-	4cc\	Che	.
=41	=41	=41	=41	=41	=41	=41	=41	=41	=41	.
4.c\	ne	8e\L]	.	4c\	Che	4gg\]	.	4.ee\	ne	.
.	.	8f\J	lo	.	.	.	.	.	.	.
.	.	4g\	sdeg-	[4e\	ne	4cc\	no	.	.	.
8d\	lo	.	.	.	.	.	.	8ff\	lo	.
4e\	sdeg-	2c\	no	8e\L]	.	2r	.	4gg\	sdeg-	.
.	.	.	.	8f\J	lo	.	.	.	.	.
4c\	no	.	.	4g\	sdeg-	.	.	4ee\	no	.
=42	=42	=42	=42	=42	=42	=42	=42	=42	=42	.
1r	.	4r	.	2G/	no	4r	.	4r	.	>>
.	.	[4g\	og-	.	.	[4b\	og-	[4dd\	og-	<HOM_3v
.	.	8g\L]	.	2r	.	8b\L]	.	8dd\L]	.	.
.	.	8g\J	ni	.	.	8b\J	ni	8dd\J	ni	.
.	.	4e\	mioa-	.	.	4cc\	mioa-	4ee\	mioa-	.
=43	=43	=43	=43	=43	=43	=43	=43	=43	=43	.
1r	.	2f\	mor	1r	.	2a/	mor	2cc\	mor	.
.	.	2g\	s'in-	.	.	2e/	s'in-	4b\	s'in-	.
.	.	.	.	.	.	.	.	[4b\	ter-	.
=44	=44	=44	=44	=44	=44	=44	=44	=44	=44	.
1r	.	1d\	ter-	1r	.	4f#/	ter-	4b\]	.	.
.	.	.	.	.	.	2g/	.	8a/L	.	.
.	.	.	.	.	.	.	.	8g/J	.	.
.	.	.	.	.	.	.	.	2a/	.	.
.	.	.	.	.	.	4f#/	.	.	.	.
=45	=45	=45	=45	=45	=45	=45	=45	=45	=45	.
1G\	Dun-	2d\	na	2r	.	2g/	na	1b\	na	>
.	.	4r	.	2d\	Dun-	2g/	Dun-	.	.	<HOM_4v
.	.	[4B\	Dun-	.	.	.	.	.	.	.
=46	=46	=46	=46	=46	=46	=46	=46	=46	=46	.
2E\	queat-	4B\]	.	2e\	queat-	2g/	queat-	1r	.	.
.	.	4c\	queat-	.	.	.	.	.	.	.
4G\	ter-	4B\	ter-	4d\	ter-	4g/	ter-	.	.	.
[4C/	ra-	[4G/	ra-	[4c\	ra-	[4e/	ra-	.	.	.
=47	=47	=47	=47	=47	=47	=47	=47	=47	=47	.
4C/]	.	4G/]	.	4c\]	.	4e/]	.	2r	.	.
4E\	tahor	4G/	tahor	4c\	tahor	4e/	tahor	.	.	.
2D\	ver-	2d\	ver-	2B\	ver-	2f/	ver-	4r	.	>
.	.	.	.	.	.	.	.	4dd\	Che	<CON_5v
=48	=48	=48	=48	=48	=48	=48	=48	=48	=48	.
[1C/	na	2G/	na	4c\	na	2e/	na	4.ee\	ne	.
.	.	.	.	4c\	Che	.	.	.	.	.
.	.	.	.	.	.	.	.	8ff\	lo	.
.	.	4r	.	4.e\	ne	4cc\	Che	4gg\	sdeg-	.
.	.	4c\	Che	.	.	[4ee\	ne	4cc\	no	.
.	.	.	.	8f\	lo	.	.	.	.	.
=49	=49	=49	=49	=49	=49	=49	=49	=49	=49	.
2C/]	.	4.e\	ne	4g\	sdeg-	8ee\L]	.	4cc\	Che	.
.	.	.	.	.	.	8ff\J	lo	.	.	.
.	.	.	.	4c\	no	4gg\	sdeg-	[4ee\	ne	.
.	.	8f\	los-	.	.	.	.	.	.	.
2C/	Che	4g\	deg-	4c\	Che	4cc\	no	8ee\L]	.	.
.	.	.	.	.	.	.	.	8ff\J	lo	.
.	.	4c\	no	[4e\	ne	4cc\	Che	[4gg\	sdeg-	.
=50	=50	=50	=50	=50	=50	=50	=50	=50	=50	.
4.c\	ne	4c\	Che	8e\L]	.	4.ee\	ne	4gg\]	.	.
.	.	.	.	8f\J	lo	.	.	.	.	.
.	.	[4e\	ne	4g\	sdeg-	.	.	4cc\	no	.
8d\	lo	.	.	.	.	8ff\	lo	.	.	.
4e\	sdeg-	8e\L]	.	2c\	no	4gg\	sdeg-	2r	.	.
.	.	8f\J	lo	.	.	.	.	.	.	.
4c\	no	4g\	sdeg-	.	.	4ee\	no	.	.	.
=51	=51	=51	=51	=51	=51	=51	=51	=51	=51	.
4r	.	2G/	no	4r	.	4r	.	4r	.	>
[4G\	og-	.	.	[4g\	og-	[4dd\	og-	[4b\	og-	<HOM_4v
8G\L]	.	2r	.	8g\L]	.	8dd\L]	.	8b\L]	.	.
8G\J	ni	.	.	8g\J	ni	8dd\J	ni	8b\J	ni	.
4E\	mioa-	.	.	4g\	mioa-	4ee\	mioa-	4cc\	mioa-	.
=52	=52	=52	=52	=52	=52	=52	=52	=52	=52	.
2F\	mor	1r	.	2f\	mor	2cc\	mor	2a/	mor	.
2G\	s'in-	.	.	2d\	s'in-	4b\	s'in-	2g/	s'in-	.
.	.	.	.	.	.	[4b\	ter-	.	.	.
=53	=53	=53	=53	=53	=53	=53	=53	=53	=53	.
1D\	ter-	1r	.	1d\	ter-	4b\]	.	4f#/	ter-	.
.	.	.	.	.	.	8a/L	.	2g/	.	.
.	.	.	.	.	.	8g/J	.	.	.	.
.	.	.	.	.	.	2a/	.	.	.	.
.	.	.	.	.	.	.	.	4f#/	.	.
=54	=54	=54	=54	=54	=54	=54	=54	=54	=54	.
2.G\	na	4G/	Che	[1d\	na	4b\	na	2g/	na	>
.	.	[4B\	ne	.	.	4g/	Che	.	.	<CON_3v+2doub
.	.	8B\L]	.	.	.	4.b\	ne	4g/	Che	.
.	.	8c\J	lo	.	.	.	.	.	.	.
4G\	Che	4d\	sdeg-	.	.	.	.	[4b\	ne	.
.	.	.	.	.	.	8cc\	lo	.	.	.
=55	=55	=55	=55	=55	=55	=55	=55	=55	=55	.
4.B\	ne	1G/	no	1d\]	.	4dd\	sdeg-	8b\L]	.	.
.	.	.	.	.	.	.	.	8cc\J	lo	.
.	.	.	.	.	.	4g/	no	4dd\	sdeg-	.
8c\	lo	.	.	.	.	.	.	.	.	.
4d\	sdeg-	.	.	.	.	2b\	Che	2g/	no	.
8G\L	no	.	.	.	.	.	.	.	.	.
8G\J	Che	.	.	.	.	.	.	.	.	.
=56	=56	=56	=56	=56	=56	=56	=56	=56	=56	.
4.A\	ne	4r	.	4c\	Che	4.cc\	ne	2r	.	.
.	.	[4c\	og-	[4e\	ne	.	.	.	.	.
8B\	lo	.	.	.	.	8dd\	lo	.	.	.
4c\	sdeg-	8c\L]	.	8e\L]	.	4ee\	sdeg-	4r	.	.
.	.	8c\J	ni	8f\J	lo	.	.	.	.	.
4G\	no	4B\	mioa-	4g\	sdeg-	4dd\	no	[4gg\	og-	.
=57	=57	=57	=57	=57	=57	=57	=57	=57	=57	.
1r	.	2c\	mor	4e\	no	4.cc\	og-	8gg\L]	.	.
.	.	.	.	.	.	.	.	8gg\J	ni	.
.	.	.	.	[4a\	og-	.	.	4ee\	mioa-	.
.	.	.	.	.	.	8cc\	ni	.	.	.
.	.	2d\	s'in-	8a\L]	.	4a/	mioa-	4ff\	mor	.
.	.	.	.	8a\J	ni	.	.	.	.	.
.	.	.	.	4f\	mioa-	[4a/	mor	4dd\	s'in-	.
=58	=58	=58	=58	=58	=58	=58	=58	=58	=58	.
1r	.	1A/	ter-	4e\	mor	4a/]	.	4cc#\	ter-	.
.	.	.	.	4d\	s'in-	4a/	s'in-	2dd\	.	.
.	.	.	.	2e\	ter-	2a/	ter-	.	.	.
.	.	.	.	.	.	.	.	4cc#\	.	.
=59	=59	=59	=59	=59	=59	=59	=59	=59	=59	.
2r	.	1d\	na	2f#\	na	2a/	na	2dd\	na	>
[2G\	og-	.	.	[2g\	og-	[2b\	og-	[2dd\	og-	<HOMlib_5v
=60	=60	=60	=60	=60	=60	=60	=60	=60	=60	.
4G\]	.	2.G/	og-	4g\]	.	4b\]	.	4dd\]	.	.
4G\	ni	.	.	4g\	ni	4b\	ni	4dd\	ni	.
2E\	mioa-	.	.	2g\	mioa-	2cc\	mioa-	2ee\	mioa-	.
.	.	4G/	ni	.	.	.	.	.	.	.
=61	=61	=61	=61	=61	=61	=61	=61	=61	=61	.
1F\	mor	1A/	mioa-	2f\	mor	2a/	mor	2cc\	mor	.
.	.	.	.	[2d\	s'in-	2a/	s'in-	2ff\	s'in-	.
=62	=62	=62	=62	=62	=62	=62	=62	=62	=62	.
1G\	s'in-	2B\	mor	2d\]	.	4g/	ter-	[1dd\	ter-	.
.	.	.	.	.	.	4a/	.	.	.	.
.	.	2B\	s'in-	[2g\	ter-	4b\	.	.	.	.
.	.	.	.	.	.	4g/	.	.	.	.
=63	=63	=63	=63	=63	=63	=63	=63	=63	=63	.
[1D\	ter-	2.d\	ter-	2g\]	.	[1a/	.	1dd\_	.	.
.	.	.	.	4f#\	.	.	.	.	.	.
.	.	8c\L	.	4e\	.	.	.	.	.	.
.	.	8B\J	.	.	.	.	.	.	.	.
=64	=64	=64	=64	=64	=64	=64	=64	=64	=64	.
1D\]	.	1A/	.	1f\	.	1a/]	.	1dd\]	.	.
=65	=65	=65	=65	=65	=65	=65	=65	=65	=65	.
1G\	na.	1G/	na.	1g\	na.	1b\	na.	1dd\	na.	>
==	==	==	==	==	==	==	==	==	==	==
*-	*-	*-	*-	*-	*-	*-	*-	*-	*-	*-